X: 42211
T: Waves Of Rush, The
R: reel
M: 4/4
K: Dminor
ef ed ef (a2|a)f ec de Ae|f2 ed ef ae|fe ce d3e|
f2 ed ef (a2|a)f ec de Ae|f2 ed ef ae|fe ce d3A|
cd eA (3AAA ae|fe df ec dA|cd eA (3AAA ae|fe ce d3A|
cd eA (3AAA ae|fe df ec dA|cd eA (3AAA ae|fe ce d3D|
FG AD dD AD|BD AD BG AD|FG AD dD AD|FG DC D3D|
FG AD dD AD|BD AD BG AD|FG AD dD AD|FG DC D3e|
fA eA fA eA|fA eA fd eA|fA Af eA Ae|fe ce d3e|
fA eA fA eA|fA eA fd eA|fA Af eA Ae|fe ce d4|

